X: 161
T: A Dhomhnuill! A Dhomhnuill!
R: reel
M: 4/4
K: Eminor
B2 BA B2 B2|efgf ed B2|B2 BA B2 B2|BAGF E2 E2:|
d2 B2 BB g2|ffef ed B2|B2 BA BB g2|e2 ed B2 B2:|

